X:43
T:Big Donald's 85th
R:reel
C:Paul S. Cranford
O:Cape Breton Island
S:http://www.cranfordpub.com
D:currently unrecorded
B:currently unpublished in book form
Z:psc, (re-formatted,updated 9/17/04)
N:
H:                                                        copyrights Cranford Publications, SOCAN
L:1/8
Q:333
M:C|
K:D
Ac|dDAF ADAF|EFGA BEBc|dDAF ABdB|AFGE FDAc|
dDAF ADAF|EFGA BEBc|dAec dABG|Aace fdfg||
||afec dBAF|AdFA BEBb|afec dABF|Aace fdfg|
afec dBAF|AdFA BEBb|abfd ecdB|AFGE FD|]
